static/icons/door.svg

<svg width="46" height="69" viewBox="0 0 46 69" fill="none" xmlns="http://www.w3.org/2000/svg">
<g id="icon">
<path id="Shape" d="M0.462463 61.764C0.465641 62.7325 1.24914 63.5174 2.21771 63.5223L12.0036 63.5393C12.9714 63.5384 13.7563 62.7549 13.7588 61.7871V6.67688C13.756 5.70866 12.9718 4.92446 12.0036 4.92163H2.21772C1.2495 4.92446 0.465297 5.70866 0.462463 6.67688L0.462463 61.764Z" fill="#63D2C1"/>
<path id="Shape_2" fill-rule="evenodd" clip-rule="evenodd" d="M16.884 0.522362C17.2226 0.239506 17.6735 0.130391 18.1039 0.227179L43.7352 4.85846C44.7175 5.06878 45.4298 5.92177 45.4616 6.92582L45.4335 61.6248C45.4007 62.6288 44.6875 63.4811 43.705 63.6904L18.1043 68.2886C17.6736 68.3848 17.2226 68.2752 16.8841 67.9921C16.5456 67.709 16.3581 67.2845 16.3766 66.8436V1.67033C16.3579 1.22957 16.5455 0.805218 16.884 0.522362ZM40.5116 61.0167C41.4941 60.8074 42.2073 59.9552 42.2401 58.9512L42.2629 9.59595C42.2311 8.5919 41.5187 7.73891 40.5364 7.52861L21.3 4.05302C20.8696 3.95625 20.4187 4.06537 20.0802 4.34822C19.7416 4.63107 19.5541 5.05541 19.5728 5.49617V63.0213C19.5542 63.4622 19.7418 63.8866 20.0803 64.1698C20.4188 64.4529 20.8697 64.5625 21.3004 64.4663L40.5116 61.0167Z" fill="#63D2C1"/>
<path id="Shape_3" d="M24.7297 34.2571C24.4856 35.1736 23.5813 35.7514 22.647 35.5877C21.7128 35.4239 21.0588 34.5731 21.141 33.6282C21.2232 32.6832 22.0142 31.958 22.9627 31.958C24.075 32.123 24.8565 33.1398 24.7297 34.2571Z" fill="#63D2C1"/>
</g>
</svg>

<svg xmlns="http://www.w3.org/2000/svg" width="46" height="69" fill="none">
  <g fill="#63D2C1">
    <path d="M.4625 61.764c.0031.9685.7866 1.7534 1.7552 1.7583l9.7859.017c.9678-.0009 1.7527-.7844 1.7552-1.7522V6.6769c-.0028-.9682-.787-1.7524-1.7552-1.7553H2.2177c-.9682.0029-1.7524.787-1.7552 1.7553V61.764Z"/>
    <path fill-rule="evenodd" d="M16.884.5224a1.4176 1.4176 0 0 1 1.2199-.2952l25.6313 4.6313a2.185 2.185 0 0 1 1.7264 2.0673l-.0281 54.699a2.185 2.185 0 0 1-1.7285 2.0656l-25.6007 4.5982a1.4197 1.4197 0 0 1-1.7277-1.445V1.6703a1.4177 1.4177 0 0 1 .5074-1.148Zm23.6276 60.4943a2.1848 2.1848 0 0 0 1.7285-2.0655l.0228-49.3552a2.185 2.185 0 0 0-1.7265-2.0674L21.3 4.053a1.4174 1.4174 0 0 0-1.7272 1.4432v57.5251a1.4194 1.4194 0 0 0 1.7276 1.445l19.2112-3.4496Z" clip-rule="evenodd"/>
    <path d="M24.7297 34.2571c-.2441.9165-1.1484 1.4943-2.0827 1.3306-.9342-.1638-1.5882-1.0146-1.506-1.9595.0822-.945.8732-1.6702 1.8217-1.6702 1.1123.165 1.8938 1.1818 1.767 2.2991Z"/>
  </g>
</svg>
